X: 1
T: Nova Scotia Barn Dance, The
M: 4/4
L: 1/8
R: barndance
K: Amaj
|: c>d |
e>fe>c A>ce>a | (3gag f2 f2 B>c | d>ed>c B>cd>e | (3fgf e2 c3 d |
e>fe>c A>ce>a | (3gag f2 b3 a | g>ag>f e>dc>B |1 A>ae>c A2 :|
2 A>ae>c A3 B ||
|: c2 e2 e>^de>f | e2 d2 d>cB>c | d2 f2 f>^ef>g | f2 e2 c3 d | 
e2 f2 g2 a2 |1 a2 g2 g3 a | g2 f2 f>^ef>g | f2 e2 c3 B :|
2 b2 a2 f3 a | g>ag>f e>dc>B | A>ae>c A2 ||
